X:322
T:
R:polska
C:O. Laurin
S:Av komminister O. Laurin i Dalhem
O:Gotland, Dalhem
M:3/4
L:1/16
K:Gm
G2GA BAG^F G2D2|DEDC B,CB,A, D2G,2|D2^FA D2GB D2FA|D2B2 B2AG G2^F2|
D2^FA D2GB D2FA|D2B2 B2AG G2^F2|G^FGA BABc d2B2|BAG^FA4 G4:|
|:BFDF dFDF BFDF|BF=EF Fedc B4|BdcB AcBA G4|G2^FG FGAF D4|
D^FAF DGBG DFAF|D2B2 B2AA G2^F2|D^FAF DGBG DFAF|D2B2 B2AG G2^F2|
G^FGA BABc d2B2|BAG^F A4 G4:|

